public/img/top/tex-5.svg

<svg fill="none" height="133" viewBox="0 0 120 133" width="120" xmlns="http://www.w3.org/2000/svg" xmlns:xlink="http://www.w3.org/1999/xlink"><filter id="a" color-interpolation-filters="sRGB" filterUnits="userSpaceOnUse" height="128.477" width="113.237" x=".77101" y="3.69813"><feFlood flood-opacity="0" result="BackgroundImageFix"/><feColorMatrix in="SourceAlpha" result="hardAlpha" type="matrix" values="0 0 0 0 0 0 0 0 0 0 0 0 0 0 0 0 0 0 127 0"/><feOffset dx="-4.81071" dy="5.6125"/><feGaussianBlur stdDeviation="4.40982"/><feColorMatrix type="matrix" values="0 0 0 0 0.316369 0 0 0 0 0.366988 0 0 0 0 0.353496 0 0 0 0.25741 0"/><feBlend in2="BackgroundImageFix" mode="normal" result="effect1_dropShadow_555_1055"/><feColorMatrix in="SourceAlpha" result="hardAlpha" type="matrix" values="0 0 0 0 0 0 0 0 0 0 0 0 0 0 0 0 0 0 127 0"/><feOffset dx="-2.40536" dy="2.40536"/><feGaussianBlur stdDeviation="2.00446"/><feColorMatrix type="matrix" values="0 0 0 0 0 0 0 0 0 0 0 0 0 0 0 0 0 0 0.144615 0"/><feBlend in2="effect1_dropShadow_555_1055" mode="normal" result="effect2_dropShadow_555_1055"/><feBlend in="SourceGraphic" in2="effect2_dropShadow_555_1055" mode="normal" result="shape"/></filter><path clip-rule="evenodd" d="m57.7991 12.2568 47.7989 27.7095v55.4188l-47.7989 27.7099-47.7991-27.7099v-55.4188z" fill-rule="evenodd" stroke="#00e599"/><g filter="url(#a)"><path d="m62.2004 6.90527 47.7986 27.70943v55.4189l-47.7986 27.7094-47.799-27.7094v-55.4189z" fill="#000"/></g><path d="m62.2004 6.90527 47.7986 27.70943v55.4189l-47.7986 27.7094-47.799-27.7094v-55.4189z" fill="#f0f5f6"/><g stroke="#003" stroke-width=".52533"><path clip-rule="evenodd" d="m63.7868 57.8065 4.7471 2.6957c.128.0728.2072.2091.2072.3568v5.3769c0 .1477-.0792.284-.2072.3568l-4.7471 2.6957c-.1247.0708-.2772.0708-.4019 0l-4.747-2.6957c-.1281-.0728-.2072-.2091-.2072-.3568v-5.3769c0-.1477.0791-.284.2072-.3568l4.747-2.6957c.1247-.0708.2772-.0708.4019 0z" fill="#00e599" fill-rule="evenodd"/><path d="m63.5859 69.1585v-5.6111" stroke-linecap="round"/><path d="m58.3623 60.8638 5.1023 2.6835" stroke-linecap="round"/><path d="m68.5672 60.8638-5.1024 2.6835" stroke-linecap="round"/><path clip-rule="evenodd" d="m45.8669 57.8065 4.747 2.6957c.1281.0728.2073.2091.2073.3568v5.3769c0 .1477-.0792.284-.2073.3568l-4.747 2.6957c-.1247.0708-.2772.0708-.4019 0l-4.747-2.6957c-.1281-.0728-.2073-.2091-.2073-.3568v-5.3769c0-.1477.0792-.284.2073-.3568l4.747-2.6957c.1247-.0708.2772-.0708.4019 0z" fill="#fff" fill-rule="evenodd"/><path d="m45.666 69.1585v-5.6111" stroke-linecap="round"/><path d="m40.4424 60.8638 5.1023 2.6835" stroke-linecap="round"/><path d="m50.6473 60.8638-5.1024 2.6835" stroke-linecap="round"/><path clip-rule="evenodd" d="m82.3132 57.8065 4.747 2.6957c.1281.0728.2073.2091.2073.3568v5.3769c0 .1477-.0792.284-.2073.3568l-4.747 2.6957c-.1247.0708-.2772.0708-.4019 0l-4.747-2.6957c-.1281-.0728-.2073-.2091-.2073-.3568v-5.3769c0-.1477.0792-.284.2073-.3568l4.747-2.6957c.1247-.0708.2772-.0708.4019 0z" fill="#fff" fill-rule="evenodd"/><path d="m82.1123 69.1589v-5.611" stroke-linecap="round"/><path d="m76.8887 60.8643 5.1023 2.6835" stroke-linecap="round"/><path d="m87.0936 60.8643-5.1024 2.6835" stroke-linecap="round"/><path clip-rule="evenodd" d="m63.7868 41.0321 4.7471 2.6957c.128.0728.2072.2091.2072.3568v5.3769c0 .1477-.0792.284-.2072.3568l-4.7471 2.6957c-.1247.0708-.2772.0708-.4019 0l-4.747-2.6957c-.1281-.0728-.2072-.2091-.2072-.3568v-5.3769c0-.1477.0791-.284.2072-.3568l4.747-2.6957c.1247-.0708.2772-.0708.4019 0z" fill="#fff" fill-rule="evenodd"/><path d="m63.5859 52.384v-5.6111" stroke-linecap="round"/><path d="m58.3623 44.0894 5.1023 2.6835" stroke-linecap="round"/><path d="m68.5672 44.0894-5.1024 2.6835" stroke-linecap="round"/><path clip-rule="evenodd" d="m63.7868 75.1884 4.7471 2.6957c.128.0727.2072.209.2072.3567v5.377c0 .1477-.0792.284-.2072.3567l-4.7471 2.6957c-.1247.0708-.2772.0708-.4019 0l-4.747-2.6957c-.1281-.0727-.2072-.209-.2072-.3567v-5.377c0-.1477.0791-.284.2072-.3567l4.747-2.6957c.1247-.0708.2772-.0708.4019 0z" fill="#fff" fill-rule="evenodd"/><path d="m63.5859 86.5403v-5.6111" stroke-linecap="round"/><path d="m58.3623 78.2456 5.1023 2.6836" stroke-linecap="round"/><path d="m68.5672 78.2456-5.1024 2.6836" stroke-linecap="round"/><path d="m76.7666 64.0962h-7.8965" stroke-linecap="square"/><path d="m58.4042 64.0835h-7.0087" stroke-linecap="square"/><path d="m63.707 74.4637v-4.8792" stroke-linecap="square"/><path d="m63.707 57.3865v-4.8792" stroke-linecap="square"/></g></svg>

<svg width="120" height="133" viewBox="0 0 120 133" fill="none" xmlns="http://www.w3.org/2000/svg">
<path fill-rule="evenodd" clip-rule="evenodd" d="M57.7991 12.2568L105.598 39.9663V95.3851L57.7991 123.095L10 95.3851V39.9663L57.7991 12.2568Z" stroke="#00E599"/>
<g filter="url(#filter0_dd_555_1055)">
<path d="M62.2004 6.90527L109.999 34.6147V90.0336L62.2004 117.743L14.4014 90.0336V34.6147L62.2004 6.90527Z" fill="black"/>
</g>
<path d="M62.2004 6.90527L109.999 34.6147V90.0336L62.2004 117.743L14.4014 90.0336V34.6147L62.2004 6.90527Z" fill="#F0F5F6"/>
<path fill-rule="evenodd" clip-rule="evenodd" d="M63.7868 57.8065L68.5339 60.5022C68.6619 60.575 68.7411 60.7113 68.7411 60.859V66.2359C68.7411 66.3836 68.6619 66.5199 68.5339 66.5927L63.7868 69.2884C63.6621 69.3592 63.5096 69.3592 63.3849 69.2884L58.6379 66.5927C58.5098 66.5199 58.4307 66.3836 58.4307 66.2359V60.859C58.4307 60.7113 58.5098 60.575 58.6379 60.5022L63.3849 57.8065C63.5096 57.7357 63.6621 57.7357 63.7868 57.8065Z" fill="#00E599" stroke="#000033" stroke-width="0.52533"/>
<path d="M63.5859 69.1585V63.5474" stroke="#000033" stroke-width="0.52533" stroke-linecap="round"/>
<path d="M58.3623 60.8638L63.4646 63.5473" stroke="#000033" stroke-width="0.52533" stroke-linecap="round"/>
<path d="M68.5672 60.8638L63.4648 63.5473" stroke="#000033" stroke-width="0.52533" stroke-linecap="round"/>
<path fill-rule="evenodd" clip-rule="evenodd" d="M45.8669 57.8065L50.6139 60.5022C50.742 60.575 50.8212 60.7113 50.8212 60.859V66.2359C50.8212 66.3836 50.742 66.5199 50.6139 66.5927L45.8669 69.2884C45.7422 69.3592 45.5897 69.3592 45.465 69.2884L40.718 66.5927C40.5899 66.5199 40.5107 66.3836 40.5107 66.2359V60.859C40.5107 60.7113 40.5899 60.575 40.718 60.5022L45.465 57.8065C45.5897 57.7357 45.7422 57.7357 45.8669 57.8065Z" fill="white" stroke="#000033" stroke-width="0.52533"/>
<path d="M45.666 69.1585V63.5474" stroke="#000033" stroke-width="0.52533" stroke-linecap="round"/>
<path d="M40.4424 60.8638L45.5447 63.5473" stroke="#000033" stroke-width="0.52533" stroke-linecap="round"/>
<path d="M50.6473 60.8638L45.5449 63.5473" stroke="#000033" stroke-width="0.52533" stroke-linecap="round"/>
<path fill-rule="evenodd" clip-rule="evenodd" d="M82.3132 57.8065L87.0602 60.5022C87.1883 60.575 87.2675 60.7113 87.2675 60.859V66.2359C87.2675 66.3836 87.1883 66.5199 87.0602 66.5927L82.3132 69.2884C82.1885 69.3592 82.036 69.3592 81.9113 69.2884L77.1643 66.5927C77.0362 66.5199 76.957 66.3836 76.957 66.2359V60.859C76.957 60.7113 77.0362 60.575 77.1643 60.5022L81.9113 57.8065C82.036 57.7357 82.1885 57.7357 82.3132 57.8065Z" fill="white" stroke="#000033" stroke-width="0.52533"/>
<path d="M82.1123 69.1589V63.5479" stroke="#000033" stroke-width="0.52533" stroke-linecap="round"/>
<path d="M76.8887 60.8643L81.991 63.5478" stroke="#000033" stroke-width="0.52533" stroke-linecap="round"/>
<path d="M87.0936 60.8643L81.9912 63.5478" stroke="#000033" stroke-width="0.52533" stroke-linecap="round"/>
<path fill-rule="evenodd" clip-rule="evenodd" d="M63.7868 41.0321L68.5339 43.7278C68.6619 43.8006 68.7411 43.9369 68.7411 44.0846V49.4615C68.7411 49.6092 68.6619 49.7455 68.5339 49.8183L63.7868 52.514C63.6621 52.5848 63.5096 52.5848 63.3849 52.514L58.6379 49.8183C58.5098 49.7455 58.4307 49.6092 58.4307 49.4615V44.0846C58.4307 43.9369 58.5098 43.8006 58.6379 43.7278L63.3849 41.0321C63.5096 40.9613 63.6621 40.9613 63.7868 41.0321Z" fill="white" stroke="#000033" stroke-width="0.52533"/>
<path d="M63.5859 52.384V46.7729" stroke="#000033" stroke-width="0.52533" stroke-linecap="round"/>
<path d="M58.3623 44.0894L63.4646 46.7729" stroke="#000033" stroke-width="0.52533" stroke-linecap="round"/>
<path d="M68.5672 44.0894L63.4648 46.7729" stroke="#000033" stroke-width="0.52533" stroke-linecap="round"/>
<path fill-rule="evenodd" clip-rule="evenodd" d="M63.7868 75.1884L68.5339 77.8841C68.6619 77.9568 68.7411 78.0931 68.7411 78.2408V83.6178C68.7411 83.7655 68.6619 83.9018 68.5339 83.9745L63.7868 86.6702C63.6621 86.741 63.5096 86.741 63.3849 86.6702L58.6379 83.9745C58.5098 83.9018 58.4307 83.7655 58.4307 83.6178V78.2408C58.4307 78.0931 58.5098 77.9568 58.6379 77.8841L63.3849 75.1884C63.5096 75.1176 63.6621 75.1176 63.7868 75.1884Z" fill="white" stroke="#000033" stroke-width="0.52533"/>
<path d="M63.5859 86.5403V80.9292" stroke="#000033" stroke-width="0.52533" stroke-linecap="round"/>
<path d="M58.3623 78.2456L63.4646 80.9292" stroke="#000033" stroke-width="0.52533" stroke-linecap="round"/>
<path d="M68.5672 78.2456L63.4648 80.9292" stroke="#000033" stroke-width="0.52533" stroke-linecap="round"/>
<path d="M76.7666 64.0962H68.8701" stroke="#000033" stroke-width="0.52533" stroke-linecap="square"/>
<path d="M58.4042 64.0835H51.3955" stroke="#000033" stroke-width="0.52533" stroke-linecap="square"/>
<path d="M63.707 74.4637V69.5845" stroke="#000033" stroke-width="0.52533" stroke-linecap="square"/>
<path d="M63.707 57.3865V52.5073" stroke="#000033" stroke-width="0.52533" stroke-linecap="square"/>
<defs>
<filter id="filter0_dd_555_1055" x="0.77101" y="3.69813" width="113.237" height="128.477" filterUnits="userSpaceOnUse" color-interpolation-filters="sRGB">
<feFlood flood-opacity="0" result="BackgroundImageFix"/>
<feColorMatrix in="SourceAlpha" type="matrix" values="0 0 0 0 0 0 0 0 0 0 0 0 0 0 0 0 0 0 127 0" result="hardAlpha"/>
<feOffset dx="-4.81071" dy="5.6125"/>
<feGaussianBlur stdDeviation="4.40982"/>
<feColorMatrix type="matrix" values="0 0 0 0 0.316369 0 0 0 0 0.366988 0 0 0 0 0.353496 0 0 0 0.25741 0"/>
<feBlend mode="normal" in2="BackgroundImageFix" result="effect1_dropShadow_555_1055"/>
<feColorMatrix in="SourceAlpha" type="matrix" values="0 0 0 0 0 0 0 0 0 0 0 0 0 0 0 0 0 0 127 0" result="hardAlpha"/>
<feOffset dx="-2.40536" dy="2.40536"/>
<feGaussianBlur stdDeviation="2.00446"/>
<feColorMatrix type="matrix" values="0 0 0 0 0 0 0 0 0 0 0 0 0 0 0 0 0 0 0.144615 0"/>
<feBlend mode="normal" in2="effect1_dropShadow_555_1055" result="effect2_dropShadow_555_1055"/>
<feBlend mode="normal" in="SourceGraphic" in2="effect2_dropShadow_555_1055" result="shape"/>
</filter>
</defs>
</svg>
